SF_Symbols/location.slash.fill.svg

<?xml version="1.0" encoding="UTF-8"?>
<svg xmlns="http://www.w3.org/2000/svg" xmlns:xlink="http://www.w3.org/1999/xlink" width="24" height="24" viewBox="0 0 24 24" version="1.1">
<g id="surface1">
<path style=" stroke:none;fill-rule:nonzero;fill:rgb(100%,100%,100%);fill-opacity:1;" d="M 6.175781 8.121094 L 1.089844 10.488281 C 0.785156 10.628906 0.554688 10.8125 0.398438 11.039062 C 0.242188 11.265625 0.152344 11.511719 0.128906 11.777344 C 0.105469 12.035156 0.148438 12.28125 0.257812 12.515625 C 0.375 12.742188 0.550781 12.929688 0.785156 13.078125 C 1.019531 13.21875 1.316406 13.292969 1.675781 13.300781 L 10.21875 13.335938 C 10.304688 13.335938 10.363281 13.355469 10.394531 13.394531 C 10.433594 13.425781 10.453125 13.484375 10.453125 13.570312 L 10.476562 22.042969 C 10.476562 22.394531 10.546875 22.6875 10.6875 22.921875 C 10.835938 23.15625 11.027344 23.328125 11.261719 23.4375 C 11.496094 23.554688 11.746094 23.597656 12.011719 23.566406 C 12.277344 23.542969 12.527344 23.441406 12.761719 23.261719 C 13.003906 23.089844 13.203125 22.835938 13.359375 22.5 L 15.644531 17.601562 Z M 17.707031 13.136719 L 22.019531 3.878906 C 22.214844 3.449219 22.289062 3.066406 22.242188 2.730469 C 22.195312 2.394531 22.054688 2.125 21.820312 1.921875 C 21.59375 1.710938 21.304688 1.589844 20.953125 1.558594 C 20.609375 1.527344 20.230469 1.609375 19.816406 1.804688 L 10.628906 6.070312 Z M 21.023438 21 C 21.195312 21.171875 21.40625 21.257812 21.65625 21.257812 C 21.914062 21.257812 22.128906 21.171875 22.300781 21 C 22.464844 20.820312 22.546875 20.609375 22.546875 20.367188 C 22.554688 20.117188 22.472656 19.902344 22.300781 19.722656 L 4.253906 1.675781 C 4.082031 1.503906 3.867188 1.417969 3.609375 1.417969 C 3.359375 1.410156 3.144531 1.496094 2.964844 1.675781 C 2.792969 1.847656 2.707031 2.0625 2.707031 2.320312 C 2.707031 2.570312 2.792969 2.78125 2.964844 2.953125 Z M 21.023438 21 "/>
</g>
</svg>

<svg xmlns="http://www.w3.org/2000/svg" width="24" height="24"><path style="stroke:none;fill-rule:nonzero;fill:#fff;fill-opacity:1" d="M6.176 8.121 1.09 10.488c-.305.14-.535.325-.692.551a1.527 1.527 0 0 0-.27.738c-.023.258.02.504.13.739.117.226.293.414.527.562.235.14.531.215.89.223l8.544.035c.086 0 .144.02.176.059.039.03.058.09.058.175l.024 8.473c0 .352.07.645.21.879.149.234.34.406.575.515.234.118.484.16.75.13.265-.024.515-.126.75-.305.242-.172.441-.426.597-.762l2.286-4.898Zm11.531 5.016 4.313-9.258c.195-.43.27-.813.222-1.149a1.272 1.272 0 0 0-.422-.808c-.226-.211-.515-.332-.867-.363-.344-.032-.723.05-1.137.246L10.63 6.07ZM21.023 21a.867.867 0 0 0 .633.258.863.863 0 0 0 .645-.258.908.908 0 0 0 .246-.633.864.864 0 0 0-.246-.644L4.254 1.676a.869.869 0 0 0-.645-.258.834.834 0 0 0-.644.258.869.869 0 0 0-.258.644c0 .25.086.461.258.633Zm0 0"/></svg>
